resources/assets/icons/calendar.svg

<svg xmlns="http://www.w3.org/2000/svg" viewBox="0 0 20 20"><g fill="none" stroke="currentColor" stroke-width="2" stroke-linecap="round" stroke-linejoin="round"><path d="M5 11.2c-.2 0-.3.2-.3.3s.2.3.3.3.3-.1.3-.3c0-.1-.2-.3-.3-.3h0M5 15.4c-.2 0-.3.2-.3.3 0 .2.2.3.3.3s.3-.1.3-.3c0-.1-.2-.3-.3-.3M10.1 11.2c-.2 0-.3.2-.3.3s.2.3.3.3.3-.1.3-.3c0-.1-.1-.3-.3-.3h0M15.2 11.2c-.2 0-.3.2-.3.3s.2.3.3.3c.2 0 .3-.1.3-.3 0-.1-.1-.3-.3-.3h0M10.1 15.4c-.2 0-.3.2-.3.3s.2.3.3.3.3-.1.3-.3c0-.1-.1-.3-.3-.3h0M15.2 15.4c-.2 0-.3.2-.3.3s.2.3.3.3c.2 0 .3-.1.3-.3 0-.1-.1-.3-.3-.3h0"/><g><path d="M1 4.58c0-.696.5-1.193 1.2-1.193h15.6c.7 0 1.2.497 1.2 1.193h0v13.227c0 .696-.5 1.193-1.2 1.193h0H2.2c-.7-.1-1.2-.597-1.2-1.293h0V4.58zM1 8.16h17.5M5.8 5.177V1M14.3 5.177V1"/></g></g></svg>

<svg version="1.1" xmlns="http://www.w3.org/2000/svg" xmlns:xlink="http://www.w3.org/1999/xlink" x="0px" y="0px"
	 viewBox="0 0 20 20" enable-background="new 0 0 20 20" xml:space="preserve">
<g>
	<g>
		<path fill="none" stroke="currentColor" stroke-width="2" stroke-linecap="round" stroke-linejoin="round" d="M5,11.2
			c-0.2,0-0.3,0.2-0.3,0.3s0.2,0.3,0.3,0.3s0.3-0.1,0.3-0.3C5.3,11.4,5.1,11.2,5,11.2L5,11.2"/>
		<path fill="none" stroke="currentColor" stroke-width="2" stroke-linecap="round" stroke-linejoin="round" d="M5,15.4
			c-0.2,0-0.3,0.2-0.3,0.3C4.7,15.9,4.9,16,5,16s0.3-0.1,0.3-0.3C5.3,15.6,5.1,15.4,5,15.4"/>
		<path fill="none" stroke="currentColor" stroke-width="2" stroke-linecap="round" stroke-linejoin="round" d="M10.1,11.2
			c-0.2,0-0.3,0.2-0.3,0.3s0.2,0.3,0.3,0.3s0.3-0.1,0.3-0.3C10.4,11.4,10.3,11.2,10.1,11.2L10.1,11.2"/>
		<path fill="none" stroke="currentColor" stroke-width="2" stroke-linecap="round" stroke-linejoin="round" d="M15.2,11.2
			c-0.2,0-0.3,0.2-0.3,0.3s0.2,0.3,0.3,0.3c0.2,0,0.3-0.1,0.3-0.3C15.5,11.4,15.4,11.2,15.2,11.2L15.2,11.2"/>
		<path fill="none" stroke="currentColor" stroke-width="2" stroke-linecap="round" stroke-linejoin="round" d="M10.1,15.4
			c-0.2,0-0.3,0.2-0.3,0.3S10,16,10.1,16s0.3-0.1,0.3-0.3C10.4,15.6,10.3,15.4,10.1,15.4L10.1,15.4"/>
		<path fill="none" stroke="currentColor" stroke-width="2" stroke-linecap="round" stroke-linejoin="round" d="M15.2,15.4
			c-0.2,0-0.3,0.2-0.3,0.3s0.2,0.3,0.3,0.3c0.2,0,0.3-0.1,0.3-0.3C15.5,15.6,15.4,15.4,15.2,15.4L15.2,15.4"/>
	</g>
	<g>
		<path fill="none" stroke="currentColor" stroke-width="2" stroke-linecap="round" stroke-linejoin="round" d="M1,4.58011
			c0-0.69613,0.5-1.19337,1.2-1.19337l0,0h15.6c0.7,0,1.2,0.49724,1.2,1.19337l0,0v13.22652C19,18.50276,18.5,19,17.8,19l0,0H2.2
			C1.5,18.90055,1,18.40331,1,17.70718l0,0V4.58011z"/>
		<path fill="none" stroke="currentColor" stroke-width="2" stroke-linecap="round" stroke-linejoin="round" d="M1,8.16022h17.5"/>
		<path fill="none" stroke="currentColor" stroke-width="2" stroke-linecap="round" stroke-linejoin="round" d="M5.8,5.1768V1"/>
		<path fill="none" stroke="currentColor" stroke-width="2" stroke-linecap="round" stroke-linejoin="round" d="M14.3,5.1768V1"/>
	</g>
</g>
</svg>
